X:127 
T:Limerick Jig, The 
B:CRE 3.049 (Port Luimnigh)
F:file ID: cre.3/127lim_J
L:1/8
M:12/8
Q:160
R:jig
K:G
DEF GAB e2c A2G|FAF EFE DFA d2A|
"3"DEF GAB e2c A2G|FEF DEF G3 G3:|
"5"BdB B2A BdB B2A|G3 BAG A2G E2D|
"7"BdB B2A BdB B2A|GFE A2E B3 B2B|
"9"DEF GAB e2c A2G|FEF EFE DFA d3|
"11"DEF GAB e2c A2G|F2F DEF G3 G3 |]

%%%

